X:79
T:Mill O, The
C:arr. Carlo Minasi
M:C
L:1/8
B:Chappell's One Hundred Scotch Melodies
B:Arranged for the Concertina by Carlo Minasi
Q:"Moderato  "1/4=140
Z:Peter Dunk 2012
K:Bb
!p!(B>c)|[d2F2] (F>G) F3 B|(G>FGB) L[c2A2F2] ([BD]>[cF])|\
[d2B2][F2D2] (edcB)|([G3E3] A [B2D2]) (B>c)|
%
[d2B2F2] ([FE]>G) [F2D2] (BA)|(G>FGB) L[c2A2F2] ([BD]>[cF])|\
[d2B2][F2D2](edcB)|L([G3E3] A [B2D2])||
%
!mf!zF|(Bcde [f3d3][ge])|([ge][fd][ec][dB] [c3A3F3] F)|\
(Bcde [fd]>[ge][fd][ec])|L([d3B3] [ec] [f2d2]) zF|
%
([BD][cF][dB][ec]) [f2d2] ([eG][fF])|\
([gE]fe[dB=E]) [c2A2F2] B>c|d2F2 (edcB)|L([G3E3] A [B2D2])||

